src/img/svg/Delete-btn.svg

<svg xmlns="http://www.w3.org/2000/svg" xmlns:xlink="http://www.w3.org/1999/xlink" width="21" height="19" viewBox="0 0 21 19"><defs><clipPath id="b"><path d="M0 0h21v19H0z"/></clipPath></defs><g id="a" clip-path="url(#b)" fill="#ce3f3f"><path d="M27.232 55.459h-9.5a.731.731 0 110-1.462h9.5a.731.731 0 110 1.462z" transform="translate(-11.903 -36.459)"/><path d="M45.731 29.381h-.037a.73.73 0 01-.694-.768l.7-13.921a.731.731 0 011.46.073l-.7 13.921a.73.73 0 01-.729.695z" transform="translate(-29.671 -11.075)"/><path d="M43.733 54.252a.731.731 0 110-1.462.73.73 0 111.459.073 1.46 1.46 0 01-1.459 1.389z" transform="translate(-28.404 -35.252)"/><path d="M14.524 29.38a.731.731 0 01-.729-.694l-.7-13.921a.731.731 0 011.46-.073l.7 13.922a.731.731 0 01-.693.767h-.037z" transform="translate(-9.425 -11.074)"/><path d="M16.463 54.253A1.46 1.46 0 0115 52.864a.731.731 0 011.46-.073.731.731 0 110 1.461z" transform="translate(-10.634 -35.253)"/><path d="M38.731 11.651A.731.731 0 0138 10.92V8.728a.731.731 0 011.462 0v2.192a.731.731 0 01-.731.731z" transform="translate(-25.229 -7.266)"/><path d="M22.731 11.651A.731.731 0 0122 10.92V8.728a.731.731 0 011.462 0v2.192a.731.731 0 01-.731.731z" transform="translate(-15.076 -7.266)"/><path d="M25.346 15.459H10.729a.731.731 0 110-1.462h14.617a.731.731 0 110 1.462z" transform="translate(-7.459 -11.074)"/><path d="M22.73 8.189a.731.731 0 01-.73-.73A1.463 1.463 0 0123.462 6a.731.731 0 110 1.462.73.73 0 01-.732.727z" transform="translate(-15.076 -5.997)"/><path d="M29.115 7.459h-4.384a.731.731 0 110-1.462h4.385a.731.731 0 110 1.462z" transform="translate(-16.345 -5.997)"/><path d="M37.462 8.189a.731.731 0 01-.731-.731.73.73 0 110-1.461 1.463 1.463 0 011.462 1.462.731.731 0 01-.731.73z" transform="translate(-23.96 -5.997)"/></g></svg>

<svg xmlns="http://www.w3.org/2000/svg" xmlns:xlink="http://www.w3.org/1999/xlink" width="21" height="19" viewBox="0 0 21 19"><defs><clipPath id="b"><rect width="21" height="19"/></clipPath></defs><g id="a" clip-path="url(#b)"><g transform="translate(2.539)"><g transform="translate(2.558 17.538)"><path d="M27.232,55.459h-9.5a.731.731,0,1,1,0-1.462h9.5a.731.731,0,1,1,0,1.462Z" transform="translate(-17 -53.997)" fill="#ce3f3f"/></g><g transform="translate(12.789 2.924)"><path d="M45.731,29.381h-.037A.73.73,0,0,1,45,28.613l.7-13.921a.731.731,0,0,1,1.46.073l-.7,13.921A.73.73,0,0,1,45.731,29.381Z" transform="translate(-44.999 -13.999)" fill="#ce3f3f"/></g><g transform="translate(12.059 16.844)"><path d="M43.733,54.252a.731.731,0,1,1,0-1.462h0a.73.73,0,1,1,1.459.073A1.46,1.46,0,0,1,43.733,54.252Z" transform="translate(-43.002 -52.096)" fill="#ce3f3f"/></g><g transform="translate(1.133 2.923)"><path d="M14.524,29.38a.731.731,0,0,1-.729-.694l-.7-13.921a.731.731,0,0,1,1.46-.073l.7,13.922a.731.731,0,0,1-.693.767h-.037Z" transform="translate(-13.097 -13.997)" fill="#ce3f3f"/></g><g transform="translate(1.829 16.844)"><path d="M16.463,54.253A1.46,1.46,0,0,1,15,52.864a.731.731,0,0,1,1.46-.073h0a.731.731,0,1,1,0,1.461Z" transform="translate(-15.002 -52.097)" fill="#ce3f3f"/></g><g transform="translate(10.232 0.731)"><path d="M38.731,11.651A.731.731,0,0,1,38,10.92V8.728a.731.731,0,0,1,1.462,0V10.92A.731.731,0,0,1,38.731,11.651Z" transform="translate(-38 -7.997)" fill="#ce3f3f"/></g><g transform="translate(4.385 0.731)"><path d="M22.731,11.651A.731.731,0,0,1,22,10.92V8.728a.731.731,0,0,1,1.462,0V10.92A.731.731,0,0,1,22.731,11.651Z" transform="translate(-22 -7.997)" fill="#ce3f3f"/></g><g transform="translate(0 2.923)"><path d="M25.346,15.459H10.729a.731.731,0,1,1,0-1.462H25.346a.731.731,0,1,1,0,1.462Z" transform="translate(-9.998 -13.997)" fill="#ce3f3f"/></g><g transform="translate(4.385 0)"><path d="M22.73,8.189A.731.731,0,0,1,22,7.459,1.463,1.463,0,0,1,23.462,6a.731.731,0,1,1,0,1.462h0A.73.73,0,0,1,22.73,8.189Z" transform="translate(-22 -5.997)" fill="#ce3f3f"/></g><g transform="translate(5.116 0)"><path d="M29.115,7.459H24.731a.731.731,0,1,1,0-1.462h4.385a.731.731,0,1,1,0,1.462Z" transform="translate(-24 -5.997)" fill="#ce3f3f"/></g><g transform="translate(9.501 0)"><path d="M37.462,8.189a.731.731,0,0,1-.731-.731h0a.73.73,0,1,1,0-1.461,1.463,1.463,0,0,1,1.462,1.462A.731.731,0,0,1,37.462,8.189Z" transform="translate(-36 -5.997)" fill="#ce3f3f"/></g></g></g></svg>
